X: 22999
T: Last Chance, The
R: polka
M: 2/4
K: Amixolydian
|:E|AA/B/ c>d|ea e2|cA AB/c/|dB G>E|
A>B cd|e/f/g e>d|cA B/A/G|A2- A:|
c/d/|ea e2|ea e>d|c/B/A AB/c/|d/e/d/B/ G2|
ea e>d|e/f/a e2|cA BG|A2 Ac/d/|
e2 e/f/e/d/|ea ed|cA- AB/c/|dB G>E|
A/A/B c>d|e/f/g e>d|cA BG|A2- A||

